assets/Globe showing europe-africa/Flat/globe_showing_europe-africa_flat.svg

<svg width="32" height="32" viewBox="0 0 32 32" fill="none" xmlns="http://www.w3.org/2000/svg">
<path d="M16 30C23.732 30 30 23.732 30 16C30 8.26801 23.732 2 16 2C8.26801 2 2 8.26801 2 16C2 23.732 8.26801 30 16 30Z" fill="#0074BA"/>
<path d="M6 14.1201V14.8301C6 15.7201 7.11 17.4101 8 17.4101H10.86C11.79 17.4101 12.54 18.1601 12.54 19.0901V20.8101C12.54 21.1701 12.84 21.4701 13.2 21.4701H13.55C13.76 21.4701 14.05 21.6101 14.05 22.1701V24.4201C14.05 25.0101 14.53 25.5001 15.13 25.5001H15.62C15.91 25.5001 16.18 25.3901 16.38 25.1801L18.08 23.4801L18.14 21.0601C18.15 20.7301 18.42 20.4701 18.75 20.4701H19.09L21 17.6201C21.1 17.4201 21.15 17.2001 21.15 16.9801V16.6201C21.15 16.4601 21.02 16.3201 20.86 16.3001C19.87 16.1401 18.13 15.3301 18.13 14.3201V13.8201C18.13 12.4197 19.2742 12.42 19.5641 12.4201L19.57 12.4201C19.85 12.4201 20.07 12.6501 20.07 12.9201V13.7701C20.07 14.1301 20.37 14.4301 20.73 14.4301H21.08L22.23 13.8501C22.74 13.5901 22.83 12.9001 22.39 12.5301L22.16 12.3401C21.85 12.0701 22.05 11.4101 22.58 11.4101H24.13C25.33 11.4101 26.13 13.3601 26.13 14.5601V15.1001C26.13 15.2701 26.27 15.4101 26.44 15.4101H26.78C27 15.4101 27.2 15.3001 27.32 15.1201L29.4134 11.9771C27.9726 7.16589 24.0138 3.4425 19.067 2.33691L18.06 3.37005H17.05L16.38 2.70005C16.17 2.49005 15.88 2.37005 15.58 2.37005H14.3C14.12 2.37005 13.95 2.41005 13.8 2.49005L12.3 3.24005C12.13 3.32005 12.03 3.49005 12.02 3.67005C11.9957 4.14951 12.0046 4.32325 12.0153 4.53329C12.0223 4.66933 12.03 4.82061 12.03 5.08005C12.03 5.39005 12.34 5.43005 12.58 5.42005C12.83 5.40005 13.03 5.18005 13.03 4.93005V4.79005C13.03 4.52005 13.14 4.27005 13.32 4.08005L13.6 3.80005C14.2043 3.67756 14.1751 4.30194 14.144 4.96528L14.144 4.96532C14.1371 5.11427 14.13 5.26519 14.13 5.41005C14.13 5.99005 13.74 6.39005 13.15 6.39005H11.57C11.2825 6.38394 10.98 6.25433 10.6832 6.12714C10.4947 6.04641 10.3086 5.96665 10.13 5.92005C9.71 5.82005 9.14 5.94005 9.14 6.73005V7.04005C9.14 7.23005 8.99 7.39005 8.79 7.39005C8.43 7.39005 8.13 7.68005 8.13 8.05005V9.25005C8.13 9.60005 8.42 9.89005 8.78 9.89005H9.36C9.72 9.89005 9.97 9.40005 9.97 9.04005L10.01 8.74005C10.01 8.55005 10.16 8.39005 10.36 8.39005H11.33C11.42 8.39005 11.88 8.40005 12.24 8.70005L12.68 9.04005C12.91 9.27005 13.21 9.39005 13.53 9.39005H13.67C13.9 9.39005 14.11 9.28005 14.23 9.09005L14.85 8.17005C14.97 7.99005 15.17 7.89005 15.38 7.89005H15.75C15.91 7.89005 16.04 8.02005 16.04 8.18005V8.90005C16.04 9.17005 16.26 9.39005 16.53 9.39005H16.9C17.53 9.39005 18.05 9.90005 18.05 10.5301C18.05 10.8601 17.69 11.0601 17.4 10.8901C16.87 10.5701 15.97 10.3201 15.52 10.4301C15.08 10.5301 14.12 11.4001 14.12 11.4001C14.12 11.4001 12.99 11.6601 13.02 11.0801V10.8001C13.03 10.5301 12.77 10.4101 12.54 10.4101H11.5C11.19 10.4101 10.89 10.5301 10.67 10.7501L10.35 11.0701C10.13 11.2901 9.84 11.4101 9.53 11.4101H8.47C8.12 11.4001 7.78 11.5401 7.54 11.7901L6.47 12.9201C6.17 13.2401 6 13.6701 6 14.1201ZM21.53 21.0001C21.24 21.0001 21 21.2401 21 21.5301V22.5901C21 22.8801 21.24 23.1201 21.53 23.1201C21.82 23.1201 22.06 22.8801 22.06 22.5901V21.5301C22.06 21.2301 21.82 21.0001 21.53 21.0001Z" fill="#00D26A"/>
</svg>

<svg xmlns="http://www.w3.org/2000/svg" width="32" height="32" fill="none"><path fill="#0074BA" d="M16 30c7.732 0 14-6.268 14-14S23.732 2 16 2 2 8.268 2 16s6.268 14 14 14Z"/><path fill="#00D26A" d="M6 14.12v.71c0 .89 1.11 2.58 2 2.58h2.86c.93 0 1.68.75 1.68 1.68v1.72c0 .36.3.66.66.66h.35c.21 0 .5.14.5.7v2.25c0 .59.48 1.08 1.08 1.08h.49c.29 0 .56-.11.76-.32l1.7-1.7.06-2.42c.01-.33.28-.59.61-.59h.34L21 17.62c.1-.2.15-.42.15-.64v-.36c0-.16-.13-.3-.29-.32-.99-.16-2.73-.97-2.73-1.98v-.5c0-1.4 1.144-1.4 1.434-1.4h.006c.28 0 .5.23.5.5v.85c0 .36.3.66.66.66h.35l1.15-.58c.51-.26.6-.95.16-1.32l-.23-.19c-.31-.27-.11-.93.42-.93h1.55c1.2 0 2 1.95 2 3.15v.54c0 .17.14.31.31.31h.34c.22 0 .42-.11.54-.29l2.093-3.143a14.024 14.024 0 0 0-10.346-9.64L18.06 3.37h-1.01l-.67-.67c-.21-.21-.5-.33-.8-.33H14.3c-.18 0-.35.04-.5.12l-1.5.75a.5.5 0 0 0-.28.43c-.024.48-.015.653-.005.863.007.136.015.288.015.547 0 .31.31.35.55.34.25-.02.45-.24.45-.49v-.14c0-.27.11-.52.29-.71l.28-.28c.604-.122.575.502.544 1.165-.007.15-.014.3-.014.445 0 .58-.39.98-.98.98h-1.58c-.287-.006-.59-.136-.887-.263-.188-.08-.374-.16-.553-.207-.42-.1-.99.02-.99.81v.31c0 .19-.15.35-.35.35a.66.66 0 0 0-.66.66v1.2c0 .35.29.64.65.64h.58c.36 0 .61-.49.61-.85l.04-.3c0-.19.15-.35.35-.35h.97c.09 0 .55.01.91.31l.44.34c.23.23.53.35.85.35h.14c.23 0 .44-.11.56-.3l.62-.92c.12-.18.32-.28.53-.28h.37c.16 0 .29.13.29.29v.72c0 .27.22.49.49.49h.37c.63 0 1.15.51 1.15 1.14 0 .33-.36.53-.65.36-.53-.32-1.43-.57-1.88-.46-.44.1-1.4.97-1.4.97s-1.13.26-1.1-.32v-.28c.01-.27-.25-.39-.48-.39H11.5c-.31 0-.61.12-.83.34l-.32.32c-.22.22-.51.34-.82.34H8.47c-.35-.01-.69.13-.93.38l-1.07 1.13c-.3.32-.47.75-.47 1.2ZM21.53 21c-.29 0-.53.24-.53.53v1.06c0 .29.24.53.53.53.29 0 .53-.24.53-.53v-1.06c0-.3-.24-.53-.53-.53Z"/></svg>
